X:150
T:The Tabbies of Tara 
R:double jig
C:2011 LE McCullough 
M:6/8
L:1/8
K:D
|: BAF AFE | FAd ~f3 | gfe edA | ~B3 Bcd |
BAF AFE | FAd ~f3 | gfe ede |1 fdc d2A :|2 fdc d2B ||:
~A3 ~f3 | fAf edA | ~B3 ~g3 | afa gfe |
~A3 ~f3 | fAf efg |1 Bdf gfe | fdc d2B :|2 Bdf gba | gfa gfe ||


